src/img/Outline.svg

<svg width="37.000000" height="37.000000" viewBox="0 0 37 37" fill="none" xmlns="http://www.w3.org/2000/svg" xmlns:xlink="http://www.w3.org/1999/xlink">
	<desc>
			Created with Pixso.
	</desc>
	<defs/>
	<path id="Union" d="M36.9028 3.80078L35.6265 0.746094C35.5459 0.554199 35.4194 0.386719 35.2588 0.259277C35.0977 0.131836 34.9082 0.0478516 34.707 0.0161133C34.5059 -0.015625 34.3008 0.00585938 34.1099 0.0776367C33.9189 0.149902 33.749 0.270508 33.6162 0.428223L18.5 18.4556L3.3833 0.428223C3.25049 0.27002 3.08057 0.148926 2.88965 0.0761719C2.69873 0.00390625 2.49268 -0.0175781 2.2915 0.0141602C2.08984 0.0458984 1.8999 0.129883 1.73877 0.257812C1.57764 0.385742 1.45117 0.553711 1.37109 0.746094L0.0966797 3.80176C0.00976562 4.00928 -0.0195312 4.23779 0.0126953 4.46143C0.0444336 4.68555 0.135742 4.896 0.276855 5.06982L14.7119 22.9751L8.62695 30.2314L1.33594 30.2314C1.146 30.2314 0.958496 30.2773 0.788574 30.3662C0.619141 30.4551 0.473145 30.584 0.361816 30.7422C0.25 30.9004 0.177246 31.0835 0.148438 31.2764C0.119629 31.4692 0.13623 31.6665 0.196289 31.8516L1.18604 34.897C1.38477 35.5098 1.76709 36.043 2.27783 36.4209C2.78906 36.7983 3.40332 37.001 4.0332 37L9.57227 37C10.0137 37.0005 10.4502 36.9009 10.8501 36.708C11.2495 36.5151 11.6025 36.2334 11.8833 35.8838L18.5 27.6768L25.1162 35.8838C25.397 36.2334 25.75 36.5151 26.1499 36.708C26.5493 36.9009 26.9858 37.0005 27.4277 37L32.9668 37C33.5962 37.0005 34.21 36.7974 34.7207 36.4199C35.2314 36.0425 35.6133 35.5093 35.8115 34.896L36.8013 31.8516C36.8618 31.6665 36.8779 31.4697 36.8496 31.2769C36.8208 31.084 36.748 30.9009 36.6367 30.7427C36.5259 30.5845 36.3794 30.4556 36.2104 30.3667C36.041 30.2778 35.8535 30.2314 35.6636 30.2314L28.373 30.2314L22.2896 22.9756L36.7246 5.07031C36.8652 4.896 36.9565 4.68506 36.9878 4.46143C37.019 4.2373 36.9897 4.00879 36.9028 3.80078ZM1.19922 4.28564L2.47656 1.23096L8.30908 8.1875L6.00244 10.2437L1.19922 4.28564ZM30.9966 10.2437L28.6909 8.1875L34.5239 1.23096L35.8003 4.28564L30.9966 10.2437ZM6.76807 11.1929L9.09131 9.12109L9.87109 10.0537L7.53125 12.1416L6.76807 11.1929ZM29.4678 12.1416L27.1284 10.0537L27.9082 9.12109L30.2314 11.1929L29.4678 12.1416ZM8.29736 13.0903L10.6562 10.9873L17.7085 19.4019L15.5034 22.0293L8.29736 13.0903ZM16.6265 28.0693L13.9917 25.7202L26.3442 10.9873L28.7021 13.0903L16.6265 28.0693ZM23.0078 25.7202L20.3726 28.0693L19.2798 26.7114L21.5161 23.938L23.0078 25.7202ZM24.5723 27.5859L21.9023 29.9668L21.1392 29.0181L23.792 26.6528L24.5723 27.5859ZM15.0981 29.9668L12.4287 27.5859L13.2085 26.6533L15.8604 29.0181L15.0981 29.9668ZM27.644 31.248C27.7002 31.3149 27.77 31.3687 27.8481 31.4058C27.9263 31.4429 28.0112 31.4619 28.0977 31.4619L35.6636 31.4619L34.6738 34.5073C34.5542 34.875 34.3252 35.1943 34.0186 35.4209C33.7124 35.6475 33.3442 35.7695 32.9668 35.7695L27.4277 35.7695C27.1626 35.77 26.9009 35.71 26.6606 35.5942C26.4209 35.4785 26.2095 35.3096 26.0405 35.0996L22.6675 30.9155L25.355 28.5161L27.644 31.248ZM10.959 35.0996C10.7905 35.3096 10.5786 35.4785 10.3389 35.5942C10.0991 35.71 9.8374 35.77 9.57227 35.7695L4.0332 35.7695C3.65527 35.7695 3.28711 35.6475 2.98096 35.4209C2.67432 35.1943 2.44531 34.875 2.32568 34.5073L1.33447 31.4619L8.90234 31.4619C8.98828 31.4619 9.07373 31.4429 9.15234 31.4062C9.23096 31.3691 9.30029 31.3149 9.35693 31.248L11.6445 28.519L14.332 30.9189L10.959 35.0996ZM18.5 31.4624C17.9658 31.4624 17.4438 31.6245 17 31.9287C16.5562 32.2329 16.2104 32.6655 16.0059 33.1714C15.8018 33.6772 15.748 34.2344 15.8525 34.7715C15.9565 35.3086 16.2134 35.8018 16.5913 36.189C16.9688 36.5762 17.4497 36.8398 17.9731 36.9468C18.4971 37.0537 19.0396 36.999 19.5327 36.7891C20.0259 36.5796 20.4478 36.2246 20.7441 35.7695C21.041 35.314 21.1992 34.7788 21.1992 34.231C21.1982 33.4971 20.9136 32.793 20.4077 32.2739C19.9019 31.7549 19.2153 31.4629 18.5 31.4624ZM18.5 35.7695C18.2031 35.7695 17.9131 35.6792 17.6665 35.5103C17.4199 35.3413 17.228 35.1011 17.1143 34.8198C17.001 34.5386 16.9712 34.2295 17.0288 33.9312C17.0869 33.6328 17.2295 33.3584 17.4395 33.1436C17.6489 32.9282 17.9165 32.7817 18.207 32.7222C18.498 32.6631 18.7998 32.6934 19.0737 32.8101C19.3477 32.9263 19.582 33.1235 19.7466 33.3765C19.9116 33.6294 19.9995 33.9268 19.9995 34.231C19.9995 34.6392 19.8413 35.0303 19.5601 35.3188C19.2788 35.6074 18.8975 35.7695 18.5 35.7695Z" fill="#3A4D6B" fill-opacity="1.000000" fill-rule="evenodd"/>
</svg>

<svg width="37" height="37" fill="none" xmlns="http://www.w3.org/2000/svg"><path d="M36.903 3.8 35.627.747a1.227 1.227 0 0 0-.368-.487A1.174 1.174 0 0 0 34.11.077c-.191.073-.361.194-.494.351L18.5 18.456 3.383.428A1.206 1.206 0 0 0 2.89.076a1.173 1.173 0 0 0-1.151.182 1.222 1.222 0 0 0-.368.488L.097 3.802a1.249 1.249 0 0 0 .18 1.268l14.435 17.905-6.085 7.256H1.336a1.18 1.18 0 0 0-.974.511 1.262 1.262 0 0 0-.166 1.11l.99 3.045a3.073 3.073 0 0 0 1.092 1.524c.511.377 1.125.58 1.755.579h5.54c.44 0 .877-.1 1.277-.292a3 3 0 0 0 1.033-.824l6.617-8.207 6.616 8.207c.281.35.634.631 1.034.824.4.193.836.293 1.278.292h5.539c.63 0 1.243-.203 1.754-.58.51-.378.892-.91 1.09-1.524l.99-3.044a1.26 1.26 0 0 0-.164-1.11 1.207 1.207 0 0 0-.427-.375 1.177 1.177 0 0 0-.546-.136h-7.291l-6.083-7.255L36.725 5.07a1.263 1.263 0 0 0 .178-1.27Zm-35.704.486L2.477 1.23l5.832 6.957-2.307 2.056L1.2 4.286Zm29.798 5.958L28.69 8.188l5.833-6.957L35.8 4.286l-4.803 5.958Zm-24.229.949L9.091 9.12l.78.933-2.34 2.088-.763-.95Zm22.7.949-2.34-2.088.78-.933 2.323 2.072-.763.949Zm-21.17.948 2.358-2.103 7.053 8.415-2.206 2.627-7.206-8.939Zm8.329 14.98-2.635-2.35 12.352-14.733 2.358 2.103-12.076 14.98Zm6.38-2.35-2.634 2.35-1.093-1.359 2.236-2.773 1.492 1.782Zm1.565 1.866-2.67 2.38-.763-.948 2.653-2.365.78.933Zm-9.474 2.38-2.67-2.38.78-.933 2.652 2.365-.762.949Zm12.546 1.282a.581.581 0 0 0 .454.214h7.566l-.99 3.045c-.12.368-.349.687-.655.914a1.768 1.768 0 0 1-1.052.349h-5.54c-.264 0-.526-.06-.766-.176a1.802 1.802 0 0 1-.62-.494l-3.373-4.184 2.687-2.4 2.289 2.732ZM10.959 35.1c-.168.21-.38.378-.62.494-.24.116-.502.176-.767.175H4.033c-.378 0-.746-.121-1.052-.348a1.843 1.843 0 0 1-.655-.914l-.992-3.045h7.568a.591.591 0 0 0 .455-.214l2.288-2.729 2.687 2.4-3.373 4.18Zm7.541-3.638c-.534 0-1.056.163-1.5.467-.444.304-.79.737-.994 1.242a2.835 2.835 0 0 0-.154 1.6c.104.538.361 1.03.74 1.418.377.387.858.65 1.381.758a2.633 2.633 0 0 0 1.56-.158c.493-.21.915-.564 1.211-1.02a2.818 2.818 0 0 0-.336-3.495 2.667 2.667 0 0 0-1.908-.812Zm0 4.308c-.297 0-.587-.09-.834-.26a1.53 1.53 0 0 1-.552-.69 1.579 1.579 0 0 1-.085-.889c.058-.298.2-.573.41-.787a1.465 1.465 0 0 1 1.634-.334c.275.116.509.313.674.566a1.564 1.564 0 0 1-.187 1.943 1.48 1.48 0 0 1-1.06.45Z" fill="#3A4D6B" fill-rule="evenodd"/></svg>
